wp-content/plugins/google-analytics-for-wordpress/lite/assets/vue/img/pretty-links-logo-white.svg

<svg width="240" height="39" fill="none" xmlns="http://www.w3.org/2000/svg"><path d="M36.5 14.3c-.8-.8-1.2-1.9-1.2-3-6.4-.3-12.8-.1-19.6.7-.5.1-.9.4-1 .7-.1.4.3.6.4.6 2.9 1.3 4.4 2 7.1 3.6.2.1.5.2.8.2 1.4-.1 2.7-.2 4-.2 4.2-.1 8.4 0 12.4.5l-2.9-3.1z" fill="#4FD6F6"/><path d="M43.2 21.3L42 20.1c-4.5-.7-9.1-1-13.7-.9-.4 0-.8.2-.9.5-.1.3.1.6.3.7 2.4 1.7 3.6 2.6 5.9 4.5.2.1.3.2.5.2 2.7.2 4.9.3 6.9.7l2.2-4.5z" fill="#9AE8FA"/><path d="M39.5 7h.7L50 8.2l1.5-3C34.3 1.8 18.2 2.4 1.1 7 .5 7.2 0 7.6 0 8c0 .3.4.4.5.5 3.3.8 5 1.3 8.1 2.4.3.1.6.1 1 0C15.5 9.8 21 9.2 26.6 9c3.1-.1 6.2 0 9.3.2.8-1.3 2.1-2.1 3.6-2.2z" fill="#03C5F2"/><path d="M74.5 15c-.2-.8-.8-1.4-1.6-1.5l-11.4-1.4-1.8-10.2c-.1-.8-.8-1.4-1.6-1.5-.8-.1-1.6.3-2 1l-4.8 9.5-11.4-1.4c-.8-.1-1.6.3-1.9 1-.4.7-.2 1.6.3 2.1l7.9 8.2-5.8 11.8s0 .1-.1.1c0 0 0 .1-.1.1v.9s0 .1.1.1c0 .1 0 .1.1.2 0 0 0 .1.1.1l.1.1.1.1.1.1c.1.1.2.1.2.2h.1c.1 0 .1.1.2.1h.1c.1 0 .1 0 .2.1h.9c.1 0 .2 0 .2-.1h.1c.1 0 .2-.1.3-.1l10.8-6.4 8.8 9.4c.3.3.7.5 1.1.6.4 0 .7 0 1.1-.2.7-.4 1.2-1.2 1-2l-2.4-13.4 10.2-6c.6 0 1-.8.8-1.6z" fill="url(#paint0_linear)"/><path d="M129.6 22.8c.7 0 1.2-.5 1.2-1.2 0-5.5-3.5-8.1-7.9-8.1-4.8 0-8.2 3.4-8.2 8.2 0 5 3.4 8.2 8.3 8.2 2.3 0 4.9-.8 6.5-2.4.2-.2.3-.5.3-.8 0-.6-.5-1.2-1.2-1.2-.3 0-.6.1-.8.4-1.1 1.1-3.1 1.7-4.7 1.7-3 0-5.4-1.8-5.7-4.7l12.2-.1zm-12.3-2.2c.4-3 2.8-4.7 5.6-4.7 3.1 0 5.2 1.6 5.3 4.7h-10.9zm-25.6-7c-2.3 0-4.7.9-5.8 3v-1.7c0-.7-.6-1.3-1.3-1.3-.7 0-1.3.6-1.3 1.3v21c0 .7.6 1.3 1.3 1.3.7 0 1.3-.6 1.3-1.3v-9.1c1.1 2.1 3.7 3.1 5.9 3.1 4.5 0 8-2.8 8-8.2 0-5.1-3.6-8.1-8.1-8.1zm-.1 13.9c-3.1 0-5.6-2.3-5.6-5.7 0-3.4 2.4-5.7 5.6-5.7 3.1 0 5.6 2.1 5.6 5.7-.1 3.7-2.6 5.7-5.6 5.7zm21.3-13.3c-.9-.4-1.8-.6-2.8-.6-1.9 0-3.9.7-4.9 2.4v-1.1c0-.7-.6-1.3-1.3-1.3-.7 0-1.3.6-1.3 1.3v13.8c0 .7.6 1.3 1.3 1.3.7 0 1.3-.6 1.3-1.3v-7.8c0-3 1.7-4.7 4.7-4.7.7 0 1.3.1 1.9.4.2.1.3.1.5.1.7 0 1.3-.6 1.3-1.3 0-.5-.3-1-.7-1.2zm120.3 6.2c-2-.2-3.9-.6-4-2.2 0-1.7 1.7-2.6 3.9-2.5 1 0 2.7.2 3.5.7l.7.3c.2.1.3.1.5.1.7 0 1.2-.5 1.2-1.2 0-.5-.3-.9-.8-1.1-.2-.1-.5-.2-.7-.3-1.4-.5-3-.7-4.5-.7-3 0-6.5 1.4-6.4 4.8 0 3.3 3.3 4.1 6.3 4.5 2.5.3 4.4.8 4.4 2.5-.1 2.1-2.6 2.4-4.1 2.4-1.4 0-2.9-.3-4.2-1-.2-.1-.4-.1-.6-.1-.7 0-1.3.6-1.3 1.3 0 .5.3.9.7 1.1 1.6.8 3.2 1.1 5.2 1.1 3.6 0 6.7-1.5 6.7-4.8.4-3.9-3.6-4.5-6.5-4.9zm-90.5 8.1c0-.6-.5-1.2-1.2-1.2h-.3c-.3.1-.7.1-1 .1-1.9 0-2.5-1.2-2.5-3v-8.3h3c.6 0 1.1-.5 1.1-1.1 0-.6-.5-1.1-1.1-1.1h-2.9v-3.3c0-.7-.6-1.3-1.3-1.3-.7 0-1.3.6-1.3 1.3V14h-2c-.6 0-1.1.5-1.1 1.1 0 .6.5 1.1 1.1 1.1h2v8.3c0 3.5 1.6 5.5 5 5.4.6 0 1.1-.1 1.6-.2h.1c.5-.2.8-.6.8-1.2zm11.6 0c0-.6-.5-1.2-1.2-1.2h-.3c-.3.1-.7.1-1 .1-1.9 0-2.5-1.2-2.5-3v-8.3h3.5c.6 0 1.1-.5 1.1-1.1 0-.6-.5-1.1-1.1-1.1h-3.4v-3.3c0-.7-.6-1.3-1.3-1.3-.7 0-1.3.6-1.3 1.3V14h-2c-.6 0-1.1.5-1.1 1.1 0 .6.5 1.1 1.1 1.1h2v8.3c0 3.5 1.6 5.5 5 5.4.6 0 1.1-.1 1.6-.2h.1c.5-.2.8-.6.8-1.2zm16.9-13.6c0-.7-.6-1.3-1.3-1.3-.6 0-1.1.4-1.3.9l-4.7 12.2-5.1-12.3c-.2-.5-.7-.8-1.2-.8-.7 0-1.3.6-1.3 1.3 0 .2 0 .4.1.5l6 14.1-1.5 3.8c-.8 1.7-2.1 1.6-3.5 1-.2-.1-.3-.1-.5-.1-.7 0-1.2.5-1.2 1.2 0 .5.3.9.7 1.1 2.9 1.4 5.6.9 7-2.4l7.7-18.7c.1-.1.1-.3.1-.5zm30.9-1.2c-2.1 0-3.8.7-5.3 2.7v-1.2c0-.7-.6-1.3-1.3-1.3-.7 0-1.3.6-1.3 1.3v13.5c0 .7.6 1.3 1.3 1.3.7 0 1.3-.6 1.3-1.3v-7.5c0-3.1 2.1-5.1 5-5.1 3.2 0 4.5 1.5 4.5 4.9v7.6c0 .7.6 1.3 1.3 1.3.7 0 1.3-.6 1.3-1.3V21c.1-4.7-2.2-7.3-6.8-7.3zm16.9 6.8l5.5-4.6c.2-.2.4-.5.4-.8 0-.6-.5-1.1-1.1-1.1-.3 0-.6.1-.8.3l-7.7 6.7V8.8c0-.7-.6-1.3-1.3-1.3-.7 0-1.3.6-1.3 1.3v20c0 .7.6 1.3 1.3 1.3.7 0 1.3-.6 1.3-1.3v-5.1l1.8-1.4 5.4 7.4c.2.3.6.5 1 .5.7 0 1.3-.6 1.3-1.3 0-.3-.1-.6-.3-.8l-5.5-7.6zM180.9 7.4c-.7 0-1.3.6-1.3 1.3v20c0 .7.6 1.3 1.3 1.3.7 0 1.3-.6 1.3-1.3v-20c0-.7-.5-1.3-1.3-1.3zm9.3 3.1c0-2.1-3.1-2.1-3.1 0-.1 2.1 3.1 2.1 3.1 0zm-1.7 4c-.7 0-1.3.6-1.3 1.3v12.9c0 .7.6 1.3 1.3 1.3.7 0 1.3-.6 1.3-1.3V15.8c.1-.7-.5-1.3-1.3-1.3z" fill="#fff"/><defs><linearGradient id="paint0_linear" x1="38.106" y1="20.408" x2="74.715" y2="18.948" gradientUnits="userSpaceOnUse"><stop stop-color="#FF8C00"/><stop offset=".7" stop-color="#FFD200"/></linearGradient></defs></svg>

<svg width="240" height="39" viewBox="0 0 240 39" fill="none" xmlns="http://www.w3.org/2000/svg">
<path d="M36.5 14.3C35.7 13.5 35.3 12.4 35.3 11.3C28.9 11 22.5 11.2 15.7 12C15.2 12.1 14.8 12.4 14.7 12.7C14.6 13.1 15 13.3 15.1 13.3C18 14.6 19.5 15.3 22.2 16.9C22.4 17 22.7 17.1 23 17.1C24.4 17 25.7 16.9 27 16.9C31.2 16.8 35.4 16.9 39.4 17.4L36.5 14.3Z" fill="#4FD6F6"/>
<path d="M43.2 21.3L42 20.1C37.5 19.4 32.9 19.1 28.3 19.2C27.9 19.2 27.5 19.4 27.4 19.7C27.3 20 27.5 20.3 27.7 20.4C30.1 22.1 31.3 23 33.6 24.9C33.8 25 33.9 25.1 34.1 25.1C36.8 25.3 39 25.4 41 25.8L43.2 21.3Z" fill="#9AE8FA"/>
<path d="M39.5 7C39.7 7 40 7 40.2 7L50 8.2L51.5 5.2C34.3 1.8 18.2 2.4 1.1 7C0.5 7.2 0 7.6 0 8C0 8.3 0.4 8.4 0.5 8.5C3.8 9.3 5.5 9.8 8.6 10.9C8.9 11 9.2 11 9.6 10.9C15.5 9.8 21 9.2 26.6 9C29.7 8.9 32.8 9 35.9 9.2C36.7 7.9 38 7.1 39.5 7Z" fill="#03C5F2"/>
<path d="M74.5 15C74.3 14.2 73.7 13.6 72.9 13.5L61.5 12.1L59.7 1.9C59.6 1.1 58.9 0.500002 58.1 0.400002C57.3 0.300002 56.5 0.700002 56.1 1.4L51.3 10.9L39.9 9.5C39.1 9.4 38.3 9.8 38 10.5C37.6 11.2 37.8 12.1 38.3 12.6L46.2 20.8L40.4 32.6C40.4 32.6 40.4 32.7 40.3 32.7C40.3 32.7 40.3 32.8 40.2 32.8V32.9V33V33.1V33.2V33.3V33.4V33.5C40.2 33.6 40.2 33.6 40.2 33.7C40.2 33.7 40.2 33.8 40.3 33.8C40.3 33.9 40.3 33.9 40.4 34C40.4 34 40.4 34.1 40.5 34.1L40.6 34.2L40.7 34.3L40.8 34.4C40.9 34.5 41 34.5 41 34.6H41.1C41.2 34.6 41.2 34.7 41.3 34.7H41.4C41.5 34.7 41.5 34.7 41.6 34.8H41.7C41.8 34.8 41.8 34.8 41.9 34.8C42 34.8 42 34.8 42.1 34.8H42.2C42.3 34.8 42.3 34.8 42.4 34.8H42.5C42.6 34.8 42.7 34.8 42.7 34.7C42.7 34.7 42.7 34.7 42.8 34.7C42.9 34.7 43 34.6 43.1 34.6L53.9 28.2L62.7 37.6C63 37.9 63.4 38.1 63.8 38.2C64.2 38.2 64.5 38.2 64.9 38C65.6 37.6 66.1 36.8 65.9 36L63.5 22.6L73.7 16.6C74.3 16.6 74.7 15.8 74.5 15Z" fill="url(#paint0_linear)"/>
<path d="M129.6 22.8C130.3 22.8 130.8 22.3 130.8 21.6C130.8 16.1 127.3 13.5 122.9 13.5C118.1 13.5 114.7 16.9 114.7 21.7C114.7 26.7 118.1 29.9 123 29.9C125.3 29.9 127.9 29.1 129.5 27.5C129.7 27.3 129.8 27 129.8 26.7C129.8 26.1 129.3 25.5 128.6 25.5C128.3 25.5 128 25.6 127.8 25.9C126.7 27 124.7 27.6 123.1 27.6C120.1 27.6 117.7 25.8 117.4 22.9L129.6 22.8ZM117.3 20.6C117.7 17.6 120.1 15.9 122.9 15.9C126 15.9 128.1 17.5 128.2 20.6H117.3Z" fill="white"/>
<path d="M91.7 13.6C89.4 13.6 87 14.5 85.9 16.6V14.9C85.9 14.2 85.3 13.6 84.6 13.6C83.9 13.6 83.3 14.2 83.3 14.9C83.3 14.9 83.3 35.1 83.3 35.9C83.3 36.6 83.9 37.2 84.6 37.2C85.3 37.2 85.9 36.6 85.9 35.9C85.9 35.2 85.9 26.8 85.9 26.8C87 28.9 89.6 29.9 91.8 29.9C96.3 29.9 99.8 27.1 99.8 21.7C99.8 16.6 96.2 13.6 91.7 13.6ZM91.6 27.5C88.5 27.5 86 25.2 86 21.8C86 18.4 88.4 16.1 91.6 16.1C94.7 16.1 97.2 18.2 97.2 21.8C97.1 25.5 94.6 27.5 91.6 27.5Z" fill="white"/>
<path d="M112.9 14.2C112 13.8 111.1 13.6 110.1 13.6C108.2 13.6 106.2 14.3 105.2 16V14.9C105.2 14.2 104.6 13.6 103.9 13.6C103.2 13.6 102.6 14.2 102.6 14.9C102.6 14.9 102.6 28 102.6 28.7C102.6 29.4 103.2 30 103.9 30C104.6 30 105.2 29.4 105.2 28.7C105.2 28 105.2 20.9 105.2 20.9C105.2 17.9 106.9 16.2 109.9 16.2C110.6 16.2 111.2 16.3 111.8 16.6C112 16.7 112.1 16.7 112.3 16.7C113 16.7 113.6 16.1 113.6 15.4C113.6 14.9 113.3 14.4 112.9 14.2Z" fill="white"/>
<path d="M233.2 20.4C231.2 20.2 229.3 19.8 229.2 18.2C229.2 16.5 230.9 15.6 233.1 15.7C234.1 15.7 235.8 15.9 236.6 16.4L237.3 16.7C237.5 16.8 237.6 16.8 237.8 16.8C238.5 16.8 239 16.3 239 15.6C239 15.1 238.7 14.7 238.2 14.5C238 14.4 237.7 14.3 237.5 14.2C236.1 13.7 234.5 13.5 233 13.5C230 13.5 226.5 14.9 226.6 18.3C226.6 21.6 229.9 22.4 232.9 22.8C235.4 23.1 237.3 23.6 237.3 25.3C237.2 27.4 234.7 27.7 233.2 27.7C231.8 27.7 230.3 27.4 229 26.7C228.8 26.6 228.6 26.6 228.4 26.6C227.7 26.6 227.1 27.2 227.1 27.9C227.1 28.4 227.4 28.8 227.8 29C229.4 29.8 231 30.1 233 30.1C236.6 30.1 239.7 28.6 239.7 25.3C240.1 21.4 236.1 20.8 233.2 20.4Z" fill="white"/>
<path d="M142.7 28.5C142.7 27.9 142.2 27.3 141.5 27.3C141.4 27.3 141.3 27.3 141.2 27.3C140.9 27.4 140.5 27.4 140.2 27.4C138.3 27.4 137.7 26.2 137.7 24.4V16.1H140.7C141.3 16.1 141.8 15.6 141.8 15C141.8 14.4 141.3 13.9 140.7 13.9H137.8V10.6C137.8 9.9 137.2 9.3 136.5 9.3C135.8 9.3 135.2 9.9 135.2 10.6V14H133.2C132.6 14 132.1 14.5 132.1 15.1C132.1 15.7 132.6 16.2 133.2 16.2H135.2V24.5C135.2 28 136.8 30 140.2 29.9C140.8 29.9 141.3 29.8 141.8 29.7H141.9C142.4 29.5 142.7 29.1 142.7 28.5Z" fill="white"/>
<path d="M154.3 28.5C154.3 27.9 153.8 27.3 153.1 27.3C153 27.3 152.9 27.3 152.8 27.3C152.5 27.4 152.1 27.4 151.8 27.4C149.9 27.4 149.3 26.2 149.3 24.4V16.1H152.8C153.4 16.1 153.9 15.6 153.9 15C153.9 14.4 153.4 13.9 152.8 13.9H149.4V10.6C149.4 9.9 148.8 9.3 148.1 9.3C147.4 9.3 146.8 9.9 146.8 10.6V14H144.8C144.2 14 143.7 14.5 143.7 15.1C143.7 15.7 144.2 16.2 144.8 16.2H146.8V24.5C146.8 28 148.4 30 151.8 29.9C152.4 29.9 152.9 29.8 153.4 29.7H153.5C154 29.5 154.3 29.1 154.3 28.5Z" fill="white"/>
<path d="M171.2 14.9C171.2 14.2 170.6 13.6 169.9 13.6C169.3 13.6 168.8 14 168.6 14.5L163.9 26.7L158.8 14.4C158.6 13.9 158.1 13.6 157.6 13.6C156.9 13.6 156.3 14.2 156.3 14.9C156.3 15.1 156.3 15.3 156.4 15.4L162.4 29.5L160.9 33.3C160.1 35 158.8 34.9 157.4 34.3C157.2 34.2 157.1 34.2 156.9 34.2C156.2 34.2 155.7 34.7 155.7 35.4C155.7 35.9 156 36.3 156.4 36.5C159.3 37.9 162 37.4 163.4 34.1L171.1 15.4C171.2 15.3 171.2 15.1 171.2 14.9Z" fill="white"/>
<path d="M202.1 13.7C200 13.7 198.3 14.4 196.8 16.4V15.2C196.8 14.5 196.2 13.9 195.5 13.9C194.8 13.9 194.2 14.5 194.2 15.2V28.7C194.2 29.4 194.8 30 195.5 30C196.2 30 196.8 29.4 196.8 28.7V21.2C196.8 18.1 198.9 16.1 201.8 16.1C205 16.1 206.3 17.6 206.3 21V28.6C206.3 29.3 206.9 29.9 207.6 29.9C208.3 29.9 208.9 29.3 208.9 28.6V21C209 16.3 206.7 13.7 202.1 13.7Z" fill="white"/>
<path d="M219 20.5L224.5 15.9C224.7 15.7 224.9 15.4 224.9 15.1C224.9 14.5 224.4 14 223.8 14C223.5 14 223.2 14.1 223 14.3L215.3 21V8.8C215.3 8.1 214.7 7.5 214 7.5C213.3 7.5 212.7 8.1 212.7 8.8V28.8C212.7 29.5 213.3 30.1 214 30.1C214.7 30.1 215.3 29.5 215.3 28.8V23.7L217.1 22.3L222.5 29.7C222.7 30 223.1 30.2 223.5 30.2C224.2 30.2 224.8 29.6 224.8 28.9C224.8 28.6 224.7 28.3 224.5 28.1L219 20.5Z" fill="white"/>
<path d="M180.9 7.4C180.2 7.4 179.6 8 179.6 8.7V28.7C179.6 29.4 180.2 30 180.9 30C181.6 30 182.2 29.4 182.2 28.7V8.7C182.2 8 181.7 7.4 180.9 7.4Z" fill="white"/>
<path d="M190.2 10.5C190.2 8.4 187.1 8.4 187.1 10.5C187 12.6 190.2 12.6 190.2 10.5Z" fill="white"/>
<path d="M188.5 14.5C187.8 14.5 187.2 15.1 187.2 15.8V28.7C187.2 29.4 187.8 30 188.5 30C189.2 30 189.8 29.4 189.8 28.7V15.8C189.9 15.1 189.3 14.5 188.5 14.5Z" fill="white"/>
<defs>
<linearGradient id="paint0_linear" x1="38.1057" y1="20.4083" x2="74.7146" y2="18.9483" gradientUnits="userSpaceOnUse">
<stop stop-color="#FF8C00"/>
<stop offset="0.7" stop-color="#FFD200"/>
</linearGradient>
</defs>
</svg>
